icon-svg/scene-concentrate.svg

<svg xmlns="http://www.w3.org/2000/svg" fill="#44739e" viewBox="0 0 24 24"><path d="M12 1.91C6.44 1.91 1.91 6.44 1.91 12S6.44 22.09 12 22.09 22.09 17.56 22.09 12 17.56 1.91 12 1.91m0 19.18c-5.01 0-9.09-4.08-9.09-9.09S6.99 2.91 12 2.91s9.09 4.08 9.09 9.09-4.08 9.09-9.09 9.09m0-16.64c-4.16 0-7.54 3.38-7.54 7.54s3.38 7.55 7.54 7.55 7.55-3.38 7.55-7.55c0-4.15-3.39-7.54-7.55-7.54m0 13.79c-3.44 0-6.25-2.8-6.25-6.24S8.55 5.75 12 5.75c3.44 0 6.24 2.8 6.24 6.25 0 3.44-2.8 6.24-6.24 6.24m0-10.6C9.59 7.64 7.64 9.6 7.64 12c0 2.41 1.96 4.36 4.36 4.36 2.41 0 4.36-1.96 4.36-4.36 0-2.41-1.95-4.36-4.36-4.36m0 7.12c-1.52 0-2.76-1.24-2.76-2.76S10.48 9.24 12 9.24s2.76 1.24 2.76 2.76-1.24 2.76-2.76 2.76"/></svg>

<?xml version="1.0" encoding="UTF-8"?>
<svg width="24px" fill="#44739e" height="24px" viewBox="0 0 24 24" version="1.1" xmlns="http://www.w3.org/2000/svg" xmlns:xlink="http://www.w3.org/1999/xlink">
            <path d="M12,1.91C6.44,1.91,1.91,6.44,1.91,12c0,5.56,4.53,10.09,10.09,10.09c5.56,0,10.09-4.53,10.09-10.09 C22.09,6.44,17.56,1.91,12,1.91z M12,21.09c-5.01,0-9.09-4.08-9.09-9.09S6.99,2.91,12,2.91s9.09,4.08,9.09,9.09 S17.01,21.09,12,21.09z M12,4.45c-4.16,0-7.54,3.38-7.54,7.54c0,4.16,3.38,7.55,7.54,7.55c4.16,0,7.55-3.38,7.55-7.55 C19.55,7.84,16.16,4.45,12,4.45z M12,18.24c-3.44,0-6.25-2.8-6.25-6.24c0-3.44,2.8-6.25,6.25-6.25c3.44,0,6.24,2.8,6.24,6.25 C18.24,15.44,15.44,18.24,12,18.24z M12,7.64c-2.41,0-4.36,1.96-4.36,4.36c0,2.41,1.96,4.36,4.36,4.36c2.41,0,4.36-1.96,4.36-4.36 C16.36,9.59,14.41,7.64,12,7.64z M12,14.76c-1.52,0-2.76-1.24-2.76-2.76S10.48,9.24,12,9.24s2.76,1.24,2.76,2.76 S13.52,14.76,12,14.76z"/>

</svg>
